img/senk.svg

<svg width="111" height="111" viewBox="0 0 111 111" fill="none" xmlns="http://www.w3.org/2000/svg">
<path d="M107.826 15.175C106.193 13.5393 103.544 13.5365 101.911 15.1681L51.7238 65.2226L33.6165 45.5563C32.0519 43.8579 29.4065 43.7478 27.7053 45.3122C26.0054 46.8768 25.8966 49.5234 27.4612 51.2234L48.5178 74.0913C49.2889 74.9294 50.3682 75.4161 51.5061 75.4398C51.5367 75.4411 51.5662 75.4411 51.5954 75.4411C52.7013 75.4411 53.7652 75.0019 54.5489 74.2209L107.818 21.0916C109.455 19.4602 109.458 16.8107 107.826 15.175Z" fill="#7BAFE4"/>
<path d="M106.816 51.3165C104.506 51.3165 102.633 53.1892 102.633 55.5C102.633 81.4903 81.4903 102.633 55.5 102.633C29.5113 102.633 8.36684 81.4903 8.36684 55.5C8.36684 29.5113 29.5113 8.36684 55.5 8.36684C57.8106 8.36684 59.6835 6.49415 59.6835 4.18353C59.6835 1.87269 57.8106 0 55.5 0C24.897 0 0 24.897 0 55.5C0 86.1017 24.897 111 55.5 111C86.1017 111 111 86.1017 111 55.5C111 53.1894 109.127 51.3165 106.816 51.3165Z" fill="#7BAFE4"/>
</svg>

<svg width="111" height="111" fill="none" xmlns="http://www.w3.org/2000/svg"><path d="M107.826 15.175a4.182 4.182 0 00-5.915-.007L51.724 65.223 33.617 45.556a4.184 4.184 0 00-6.155 5.667l21.056 22.868a4.179 4.179 0 002.988 1.349l.09.001a4.19 4.19 0 002.953-1.22l53.269-53.13a4.182 4.182 0 00.008-5.916z" fill="#7BAFE4"/><path d="M106.816 51.316a4.183 4.183 0 00-4.183 4.184c0 25.99-21.143 47.133-47.133 47.133-25.989 0-47.133-21.143-47.133-47.133C8.367 29.511 29.51 8.367 55.5 8.367A4.183 4.183 0 1055.5 0C24.897 0 0 24.897 0 55.5 0 86.102 24.897 111 55.5 111c30.602 0 55.5-24.898 55.5-55.5a4.184 4.184 0 00-4.184-4.184z" fill="#7BAFE4"/></svg>
